assets/images/icon 2.svg

<svg width="66" height="67" viewBox="0 0 66 67" fill="none" xmlns="http://www.w3.org/2000/svg">
<g clip-path="url(#clip0_99_52)">
<path d="M61.5096 46.75C61.3932 46.6592 61.3091 46.5334 61.2695 46.3912C61.2299 46.2491 61.2369 46.0979 61.2895 45.96C61.683 44.7551 61.8353 43.4846 61.7377 42.2208C61.6401 40.9571 61.2945 39.725 60.7206 38.5948C60.1467 37.4647 59.3558 36.4587 58.3931 35.6343C57.4303 34.8098 56.3145 34.1832 55.1095 33.79C54.9551 33.7608 54.8183 33.6721 54.7286 33.5431C54.6388 33.4141 54.6032 33.255 54.6296 33.1C54.6296 31.55 54.6296 29.99 54.6296 28.43V25.83C55.5196 25.83 56.3296 25.83 57.1496 25.83C58.2522 25.7705 59.3003 25.3319 60.1167 24.5884C60.9331 23.8449 61.4675 22.8422 61.6296 21.75C61.691 21.5386 61.7246 21.3201 61.7295 21.1C61.7295 19.74 61.7295 6.37001 61.7295 5.01001C61.753 4.33682 61.6356 3.66615 61.385 3.04091C61.1344 2.41567 60.756 1.84963 60.274 1.379C59.7921 0.908377 59.2173 0.543524 58.5863 0.307792C57.9553 0.0720595 57.282 -0.0293635 56.6095 0.0100124C40.6895 0.0100124 24.7695 0.0100124 8.84953 0.0100124C8.16613 -0.0302392 7.48192 0.0740482 6.84154 0.316066C6.20116 0.558083 5.619 0.932394 5.13304 1.41458C4.64708 1.89677 4.26823 2.47599 4.02123 3.11447C3.77422 3.75294 3.66465 4.43632 3.69957 5.12001C3.69957 10.3267 3.69957 15.54 3.69957 20.76C3.66791 21.4394 3.77887 22.1179 4.02538 22.7518C4.27188 23.3857 4.64845 23.9609 5.13078 24.4404C5.61312 24.9199 6.19059 25.2931 6.82591 25.5359C7.46124 25.7787 8.14037 25.8857 8.81957 25.85H11.0696V26.55C11.0696 28.69 11.0696 30.83 11.0696 32.98C11.1015 33.1748 11.0553 33.3743 10.9411 33.5353C10.827 33.6963 10.654 33.8058 10.4596 33.84C8.06646 34.651 6.0874 36.3691 4.94841 38.6247C3.80943 40.8802 3.60156 43.4928 4.36955 45.9C4.43801 46.0533 4.45154 46.2256 4.40782 46.3877C4.36411 46.5498 4.26582 46.6919 4.12956 46.79C1.85516 48.872 0.430548 51.7213 0.129563 54.79C-0.0704368 56.96 -0.0104417 59.15 -0.000441683 61.33C-0.00375277 62.4826 0.381172 63.6028 1.09233 64.5099C1.80349 65.417 2.79943 66.0581 3.91954 66.33C4.08954 66.33 4.24953 66.43 4.40953 66.48H22.9695C23.4631 66.3366 23.9473 66.1629 24.4195 65.96C25.3014 65.5803 26.0516 64.949 26.5763 64.145C27.1011 63.341 27.377 62.4001 27.3696 61.44C27.4413 59.2159 27.3979 56.9896 27.2395 54.77C26.9307 51.7207 25.5062 48.893 23.2395 46.83C23.1058 46.7298 23.0089 46.5883 22.9637 46.4274C22.9185 46.2665 22.9276 46.0952 22.9895 45.94C23.3929 44.6692 23.5297 43.3288 23.3913 42.0028C23.2529 40.6767 22.8423 39.3934 22.1853 38.2333C21.5282 37.0732 20.6389 36.0611 19.5728 35.2604C18.5067 34.4597 17.2868 33.8877 15.9895 33.58L15.3796 33.43C15.5196 33.25 15.6195 33.12 15.7295 33C17.9295 30.76 20.1096 28.51 22.3296 26.29C22.586 26.0501 22.9189 25.9084 23.2696 25.89C29.6162 25.89 35.9729 25.89 42.3395 25.89C42.5898 25.8671 42.8404 25.9307 43.0495 26.07C45.4395 28.48 47.8096 30.91 50.2496 33.4L49.7295 33.56C48.4177 33.8546 47.1814 34.4187 46.0991 35.2164C45.0168 36.0142 44.1122 37.0283 43.4427 38.1943C42.7732 39.3603 42.3534 40.6527 42.21 41.9896C42.0666 43.3265 42.2026 44.6785 42.6095 45.96C42.6749 46.1022 42.6908 46.2623 42.6545 46.4145C42.6183 46.5668 42.532 46.7025 42.4095 46.8C41.0723 48.053 40.0102 49.5704 39.2906 51.2557C38.571 52.941 38.2097 54.7576 38.2295 56.59V61.13C38.1804 62.3641 38.5781 63.5745 39.3497 64.5389C40.1212 65.5034 41.2148 66.1571 42.4296 66.38C42.5099 66.4084 42.587 66.4453 42.6595 66.49H61.2195C61.2921 66.4453 61.3692 66.4084 61.4496 66.38C62.6643 66.1547 63.7569 65.4986 64.5267 64.5323C65.2964 63.566 65.6916 62.3544 65.6396 61.12C65.6396 59.65 65.6396 58.18 65.6396 56.71C65.6865 54.8533 65.3432 53.0073 64.6318 51.2916C63.9203 49.5759 62.8567 48.0287 61.5096 46.75ZM24.7795 56.01C24.8495 57.76 24.7795 59.51 24.7795 61.26C24.7808 61.597 24.7156 61.931 24.5876 62.2428C24.4595 62.5545 24.2712 62.8379 24.0333 63.0767C23.7955 63.3155 23.5128 63.5049 23.2015 63.6342C22.8903 63.7635 22.5566 63.83 22.2195 63.83H5.36955C5.00053 63.8538 4.63068 63.7983 4.2849 63.6672C3.93911 63.5362 3.62539 63.3326 3.36485 63.0701C3.10432 62.8077 2.90302 62.4925 2.77446 62.1458C2.6459 61.7991 2.59309 61.4289 2.61955 61.06C2.61955 59.06 2.61957 56.95 2.75957 54.91C3.03809 52.5781 4.12842 50.4186 5.83952 48.81C6.7599 50.0309 7.95451 51.0181 9.32683 51.6922C10.6992 52.3662 12.2107 52.708 13.7395 52.69C15.264 52.6974 16.769 52.3476 18.134 51.6686C19.4989 50.9896 20.6858 50.0003 21.5995 48.78C23.5445 50.6951 24.6824 53.2822 24.7795 56.01ZM20.8896 43.01C20.879 44.9029 20.1203 46.7149 18.779 48.0506C17.4376 49.3863 15.6225 50.1374 13.7295 50.14C11.8356 50.1481 10.0151 49.4075 8.66472 48.0795C7.31429 46.7516 6.5433 44.9438 6.51958 43.05C6.53539 41.1579 7.29742 39.3485 8.64006 38.0152C9.9827 36.682 11.7974 35.9326 13.6896 35.93C15.5748 35.9192 17.3883 36.6524 18.7363 37.9704C20.0842 39.2885 20.858 41.085 20.8896 42.97V43.01ZM44.6896 23.91C44.4929 23.6975 44.2525 23.5302 43.9848 23.4197C43.7172 23.3092 43.4289 23.2581 43.1396 23.27C36.2796 23.27 29.4229 23.27 22.5696 23.27C22.2689 23.2556 21.9689 23.3093 21.6918 23.4271C21.4148 23.5448 21.1679 23.7236 20.9695 23.95C18.7495 26.25 16.4996 28.53 14.2596 30.82C14.1096 30.98 13.9396 31.12 13.6796 31.36V30.55C13.6796 28.62 13.6796 26.7 13.6796 24.77C13.6796 23.77 13.1995 23.28 12.1595 23.28H8.84953C8.51175 23.3192 8.16949 23.281 7.84868 23.1682C7.52787 23.0555 7.23697 22.8712 6.99797 22.6293C6.75897 22.3874 6.57816 22.0943 6.46929 21.7722C6.36041 21.45 6.3263 21.1073 6.36955 20.77C6.36955 15.53 6.36955 10.2933 6.36955 5.06002C6.33796 4.72912 6.38042 4.39535 6.49382 4.08289C6.60722 3.77044 6.78872 3.48714 7.02519 3.25354C7.26167 3.01994 7.54719 2.84189 7.86101 2.73232C8.17483 2.62274 8.50904 2.58438 8.83952 2.62001H56.6595C56.9904 2.58464 57.325 2.62311 57.6393 2.73263C57.9535 2.84216 58.2395 3.02002 58.4767 3.2534C58.7139 3.48678 58.8964 3.76987 59.011 4.08227C59.1257 4.39467 59.1696 4.7286 59.1396 5.06002C59.1396 6.39002 59.1396 19.39 59.1396 21.06C59.1353 21.3645 59.0682 21.6648 58.9424 21.9421C58.8166 22.2194 58.6348 22.4677 58.4086 22.6714C58.1823 22.8752 57.9164 23.03 57.6274 23.1261C57.3385 23.2222 57.0328 23.2576 56.7295 23.23H53.6095C52.5395 23.23 52.0796 23.69 52.0696 24.77C52.0696 26.22 52.0696 27.67 52.0696 29.11V31.11L51.8096 31.3C51.7153 31.0846 51.598 30.8801 51.4596 30.69C49.1596 28.45 46.9196 26.17 44.6896 23.87V23.91ZM51.9795 35.91C53.8725 35.9046 55.6909 36.6481 57.0378 37.9782C58.3848 39.3083 59.1511 41.1171 59.1695 43.01C59.1537 44.9029 58.3899 46.7128 57.0448 48.0448C55.6998 49.3767 53.8825 50.1227 51.9895 50.12C50.0981 50.1202 48.2828 49.375 46.937 48.046C45.5912 46.717 44.8232 44.9113 44.7995 43.02C44.8101 41.1236 45.5716 39.3087 46.9172 37.9724C48.2629 36.6361 50.0831 35.8873 51.9795 35.89V35.91ZM63.0596 61.47C63.031 62.1181 62.7506 62.7295 62.2781 63.174C61.8055 63.6185 61.1782 63.8611 60.5295 63.85C54.8429 63.85 49.1562 63.85 43.4695 63.85C43.1262 63.8557 42.7854 63.7914 42.4677 63.6611C42.15 63.5307 41.8622 63.3371 41.6218 63.092C41.3814 62.8469 41.1934 62.5554 41.0692 62.2353C40.945 61.9152 40.8873 61.5731 40.8996 61.23C40.8996 59.12 40.8995 56.99 41.0495 54.89C41.3133 52.5794 42.3741 50.433 44.0495 48.82C44.984 50.0282 46.1828 51.0062 47.5539 51.6791C48.9251 52.352 50.4322 52.7019 51.9596 52.7019C53.4869 52.7019 54.994 52.352 56.3652 51.6791C57.7363 51.0062 58.9351 50.0282 59.8696 48.82C61.5554 50.4294 62.618 52.5829 62.8696 54.9C63.1196 57.08 63.0796 59.27 63.0596 61.45V61.47Z" fill="#F49158"/>
<path d="M32.7203 17.45H15.0203C14.8003 17.45 14.5803 17.45 14.3703 17.45C14.1966 17.454 14.0238 17.4234 13.8621 17.36C13.7003 17.2966 13.5528 17.2016 13.4281 17.0806C13.3034 16.9596 13.204 16.815 13.1357 16.6553C13.0674 16.4955 13.0316 16.3238 13.0303 16.15C13.0355 15.799 13.1794 15.4643 13.4304 15.219C13.6814 14.9736 14.0193 14.8373 14.3703 14.84H50.5603C50.8967 14.8238 51.2337 14.8575 51.5603 14.94C51.8307 15.0279 52.0627 15.2059 52.2174 15.4444C52.3722 15.6829 52.4402 15.9673 52.4103 16.25C52.3942 16.5264 52.2875 16.7897 52.1068 16.9994C51.926 17.2091 51.6812 17.3534 51.4103 17.41C51.1273 17.4301 50.8433 17.4301 50.5603 17.41L32.7203 17.45Z" fill="#F49158"/>
<path d="M39.2496 7.10996H50.5196C50.7792 7.08965 51.04 7.08965 51.2996 7.10996C51.5849 7.149 51.8477 7.28611 52.0429 7.49777C52.2382 7.70943 52.3537 7.98244 52.3696 8.26996C52.4116 8.54099 52.3602 8.81824 52.2239 9.05625C52.0876 9.29426 51.8746 9.47892 51.6196 9.57996C51.3587 9.68218 51.0796 9.72982 50.7996 9.71996H27.6596C27.3587 9.75925 27.0532 9.7032 26.7859 9.55968C26.5186 9.41617 26.303 9.19242 26.1696 8.91996C26.0809 8.72679 26.0421 8.51444 26.0567 8.30238C26.0714 8.09032 26.1391 7.88533 26.2535 7.7062C26.368 7.52707 26.5255 7.37953 26.7118 7.2771C26.898 7.17468 27.107 7.12065 27.3196 7.11996C28.2496 7.11996 29.1796 7.11996 30.1096 7.11996L39.2496 7.10996Z" fill="#F49158"/>
<path d="M16.3002 7.11997C16.9502 7.11997 17.6002 7.11997 18.3002 7.11997C18.6179 7.1326 18.9188 7.2658 19.1417 7.49244C19.3647 7.71908 19.4929 8.02215 19.5003 8.33997C19.5182 8.50397 19.5029 8.66989 19.4553 8.82787C19.4078 8.98585 19.329 9.13265 19.2236 9.25953C19.1182 9.38642 18.9883 9.4908 18.8417 9.56647C18.6951 9.64213 18.5348 9.68754 18.3702 9.69997C17.0369 9.74664 15.6769 9.74664 14.2902 9.69997C14.122 9.6924 13.9571 9.65118 13.8051 9.57877C13.6531 9.50635 13.5171 9.4042 13.4052 9.27835C13.2934 9.1525 13.2079 9.0055 13.1538 8.84605C13.0997 8.68659 13.078 8.51791 13.0902 8.34997C13.103 8.02267 13.2408 7.71271 13.4752 7.4839C13.7096 7.25509 14.0227 7.12484 14.3502 7.11997C14.9702 7.09997 15.6402 7.11997 16.3002 7.11997Z" fill="#F49158"/>
</g>
<defs>
<clipPath id="clip0_99_52">
<rect width="65.69" height="66.45" fill="white"/>
</clipPath>
</defs>
</svg>

<svg xmlns="http://www.w3.org/2000/svg" xmlns:xlink="http://www.w3.org/1999/xlink" viewBox="0 0 66 67" enable-background="new 0 0 66 67" xml:space="preserve">
    <style type="text/css">
	.icon-boundary {
		fill: #F49158;
	}
	</style>

	<g clip-path="url(#SVGID_2_)">
		<path class="icon-boundary" d="M61.51,46.75c-0.117-0.091-0.201-0.217-0.24-0.359c-0.039-0.142-0.033-0.293,0.02-0.431
			c0.395-1.205,0.547-2.476,0.449-3.739s-0.443-2.496-1.018-3.626s-1.365-2.136-2.328-2.96c-0.963-0.825-2.078-1.451-3.283-1.845
			c-0.154-0.029-0.291-0.118-0.381-0.247s-0.125-0.288-0.1-0.443c0-1.55,0-3.11,0-4.67v-2.6c0.891,0,1.701,0,2.521,0
			c1.103-0.06,2.151-0.498,2.968-1.242s1.35-1.746,1.512-2.838c0.063-0.211,0.096-0.43,0.101-0.65c0-1.36,0-14.73,0-16.09
			c0.023-0.673-0.094-1.344-0.345-1.969c-0.25-0.625-0.629-1.191-1.111-1.662c-0.481-0.471-1.057-0.835-1.688-1.071
			c-0.631-0.235-1.304-0.337-1.977-0.298c-15.92,0-31.84,0-47.76,0C8.166-0.03,7.482,0.074,6.842,0.316
			C6.201,0.558,5.619,0.933,5.133,1.415c-0.486,0.482-0.865,1.062-1.111,1.7C3.774,3.753,3.665,4.437,3.7,5.12
			c0,5.207,0,10.42,0,15.64c-0.032,0.68,0.079,1.358,0.326,1.992c0.247,0.634,0.623,1.209,1.105,1.688s1.06,0.853,1.695,1.096
			c0.636,0.243,1.315,0.35,1.994,0.314h2.25v0.7c0,2.14,0,4.28,0,6.43c0.032,0.195-0.015,0.395-0.129,0.555
			c-0.114,0.161-0.287,0.271-0.481,0.305c-2.393,0.811-4.372,2.529-5.511,4.785C3.81,40.881,3.602,43.492,4.37,45.9
			c0.068,0.152,0.082,0.325,0.038,0.487c-0.043,0.162-0.142,0.304-0.278,0.402c-2.274,2.082-3.699,4.931-4,8
			c-0.2,2.17-0.14,4.36-0.13,6.54c-0.003,1.152,0.382,2.272,1.093,3.18c0.711,0.907,1.707,1.549,2.827,1.82
			c0.17,0,0.33,0.1,0.49,0.15h18.56c0.493-0.145,0.978-0.317,1.45-0.521c0.882-0.38,1.632-1.011,2.157-1.815
			c0.525-0.804,0.801-1.744,0.793-2.705c0.072-2.224,0.028-4.449-0.13-6.67c-0.309-3.049-1.733-5.877-4-7.939
			c-0.133-0.1-0.23-0.242-0.275-0.402c-0.045-0.161-0.036-0.332,0.025-0.488c0.404-1.271,0.541-2.611,0.402-3.937
			c-0.138-1.326-0.549-2.609-1.206-3.77c-0.657-1.16-1.547-2.173-2.613-2.974c-1.066-0.8-2.286-1.372-3.583-1.68l-0.61-0.15
			c0.14-0.18,0.24-0.31,0.35-0.43c2.2-2.24,4.38-4.49,6.6-6.71c0.256-0.24,0.589-0.382,0.94-0.4c6.347,0,12.703,0,19.07,0
			c0.25-0.023,0.5,0.041,0.709,0.18c2.391,2.41,4.761,4.84,7.201,7.33l-0.521,0.16c-1.312,0.294-2.548,0.859-3.63,1.657
			c-1.083,0.797-1.987,1.812-2.656,2.978c-0.67,1.166-1.09,2.458-1.233,3.796c-0.144,1.336-0.007,2.688,0.399,3.97
			c0.065,0.142,0.082,0.302,0.045,0.454c-0.036,0.152-0.122,0.289-0.244,0.386c-1.338,1.253-2.4,2.771-3.119,4.456
			c-0.721,1.686-1.081,3.502-1.062,5.334v4.54c-0.05,1.234,0.349,2.444,1.12,3.409s1.865,1.618,3.08,1.841
			c0.08,0.028,0.157,0.065,0.23,0.11h18.56c0.072-0.045,0.149-0.082,0.229-0.11c1.215-0.226,2.308-0.882,3.078-1.848
			c0.77-0.966,1.164-2.178,1.112-3.412c0-1.47,0-2.94,0-4.41c0.047-1.856-0.296-3.702-1.008-5.419
			C63.92,49.576,62.856,48.029,61.51,46.75z M24.779,56.01c0.07,1.75,0,3.5,0,5.25c0.001,0.338-0.063,0.672-0.192,0.982
			c-0.128,0.313-0.316,0.596-0.554,0.834c-0.238,0.239-0.521,0.429-0.832,0.559c-0.312,0.129-0.645,0.195-0.982,0.195H5.37
			C5,63.854,4.631,63.799,4.285,63.667c-0.346-0.131-0.66-0.335-0.92-0.597c-0.26-0.263-0.462-0.578-0.59-0.924
			c-0.128-0.348-0.181-0.718-0.155-1.086c0-2,0-4.11,0.14-6.15c0.278-2.332,1.369-4.492,3.08-6.1
			c0.92,1.221,2.115,2.207,3.487,2.882c1.373,0.674,2.884,1.016,4.413,0.997c1.525,0.008,3.03-0.342,4.395-1.021
			C19.499,50.99,20.686,50,21.6,48.779C23.544,50.695,24.683,53.282,24.779,56.01z M20.89,43.01
			c-0.011,1.893-0.77,3.705-2.111,5.041s-3.156,2.086-5.049,2.09c-1.894,0.008-3.714-0.732-5.065-2.061
			c-1.35-1.328-2.121-3.137-2.145-5.03c0.016-1.892,0.778-3.701,2.121-5.034c1.343-1.334,3.157-2.083,5.049-2.086
			c1.885-0.011,3.699,0.723,5.047,2.041c1.348,1.318,2.122,3.114,2.153,5V43.01z M44.689,23.91c-0.197-0.213-0.438-0.38-0.705-0.49
			c-0.268-0.111-0.556-0.162-0.845-0.15c-6.86,0-13.717,0-20.57,0c-0.301-0.014-0.601,0.039-0.878,0.157
			c-0.277,0.118-0.524,0.296-0.722,0.523c-2.22,2.3-4.47,4.58-6.71,6.87c-0.15,0.16-0.32,0.3-0.58,0.54v-0.81c0-1.93,0-3.85,0-5.78
			c0-1-0.48-1.49-1.52-1.49H8.85c-0.338,0.04-0.68,0.001-1.001-0.112c-0.321-0.112-0.612-0.297-0.851-0.539
			c-0.239-0.242-0.42-0.535-0.529-0.857c-0.109-0.322-0.143-0.665-0.1-1.002c0-5.24,0-10.477,0-15.71
			C6.338,4.729,6.38,4.396,6.494,4.083c0.114-0.313,0.295-0.596,0.532-0.83C7.262,3.02,7.547,2.842,7.861,2.732
			c0.314-0.11,0.648-0.148,0.979-0.112H56.66c0.33-0.036,0.665,0.003,0.979,0.112c0.314,0.11,0.601,0.288,0.838,0.521
			s0.42,0.517,0.534,0.829c0.114,0.313,0.159,0.646,0.129,0.978c0,1.33,0,14.33,0,16c-0.005,0.304-0.071,0.605-0.197,0.882
			c-0.126,0.277-0.308,0.526-0.534,0.729s-0.492,0.358-0.781,0.455s-0.594,0.132-0.897,0.104h-3.12c-1.07,0-1.529,0.46-1.539,1.54
			c0,1.45,0,2.9,0,4.34v2L51.81,31.3c-0.095-0.215-0.212-0.42-0.351-0.61c-2.299-2.24-4.539-4.52-6.77-6.82V23.91z M51.979,35.91
			c1.894-0.006,3.712,0.738,5.058,2.068c1.348,1.33,2.113,3.139,2.133,5.031c-0.016,1.893-0.78,3.703-2.125,5.035
			c-1.346,1.332-3.162,2.078-5.056,2.075c-1.892,0-3.706-0.745-5.052-2.074s-2.114-3.135-2.139-5.026
			c0.012-1.896,0.773-3.711,2.118-5.047c1.346-1.336,3.166-2.086,5.063-2.082V35.91z M63.06,61.471
			c-0.028,0.647-0.31,1.259-0.781,1.703c-0.473,0.445-1.101,0.688-1.749,0.676c-5.687,0-11.373,0-17.06,0
			c-0.344,0.006-0.685-0.059-1.002-0.188s-0.605-0.324-0.847-0.569c-0.24-0.245-0.428-0.537-0.552-0.856
			c-0.124-0.32-0.183-0.662-0.17-1.005c0-2.11,0-4.24,0.149-6.34c0.265-2.311,1.325-4.457,3-6.07
			c0.936,1.208,2.134,2.186,3.505,2.859c1.372,0.672,2.878,1.022,4.405,1.022s3.035-0.351,4.406-1.022
			c1.371-0.674,2.57-1.651,3.504-2.859c1.686,1.609,2.749,3.763,3,6.08c0.25,2.18,0.211,4.369,0.19,6.55V61.471z"/>
		<path class="icon-boundary" d="M32.72,17.45h-17.7c-0.22,0-0.44,0-0.65,0c-0.173,0.004-0.346-0.027-0.508-0.09
			c-0.162-0.063-0.31-0.158-0.434-0.279c-0.125-0.121-0.224-0.266-0.292-0.425s-0.104-0.332-0.105-0.505
			c0.005-0.351,0.149-0.686,0.4-0.931c0.251-0.245,0.589-0.381,0.94-0.379h36.19c0.336-0.016,0.674,0.018,1,0.1
			c0.27,0.088,0.502,0.266,0.656,0.504c0.155,0.239,0.224,0.523,0.193,0.806c-0.016,0.276-0.123,0.54-0.303,0.75
			c-0.182,0.209-0.426,0.354-0.697,0.411c-0.283,0.02-0.566,0.02-0.85,0L32.72,17.45z"/>
		<path class="icon-boundary" d="M39.25,7.11h11.27c0.26-0.02,0.521-0.02,0.78,0c0.285,0.039,0.548,0.176,0.743,0.388
			c0.195,0.212,0.311,0.485,0.326,0.772c0.043,0.271-0.009,0.548-0.145,0.786c-0.137,0.238-0.35,0.423-0.605,0.524
			c-0.26,0.102-0.539,0.15-0.819,0.14H27.66c-0.301,0.04-0.606-0.017-0.874-0.16c-0.268-0.144-0.483-0.367-0.617-0.64
			c-0.088-0.193-0.127-0.405-0.113-0.618c0.015-0.212,0.083-0.417,0.197-0.596c0.115-0.179,0.272-0.327,0.458-0.429
			c0.186-0.103,0.395-0.157,0.608-0.157c0.93,0,1.86,0,2.79,0L39.25,7.11z"/>
		<path class="icon-boundary" d="M16.3,7.12c0.65,0,1.3,0,2,0c0.317,0.013,0.619,0.146,0.841,0.372c0.223,0.227,0.351,0.53,0.359,0.848
			c0.018,0.164,0.002,0.33-0.045,0.488c-0.047,0.158-0.126,0.305-0.231,0.432c-0.105,0.126-0.235,0.231-0.382,0.307
			S18.535,9.688,18.37,9.7c-1.333,0.046-2.693,0.046-4.08,0c-0.168-0.008-0.333-0.049-0.485-0.122c-0.152-0.072-0.288-0.174-0.4-0.3
			s-0.197-0.273-0.251-0.432C13.1,8.687,13.078,8.518,13.09,8.35c0.013-0.328,0.15-0.637,0.385-0.866s0.547-0.359,0.875-0.364
			C14.97,7.1,15.64,7.12,16.3,7.12z"/>
	</g>
</svg>
